X: 4
T: Muieira de Chantada
M: 6/8
L: 1/8
R: muieira
Q: 160
K: d minor
|: D2 A |
D3 EFG | A3- A2 A | AGA B2 A | A3 E3 | 
E3 FGA | B3- BAG | ABA GFE | F2 E D2 A | 
D3 EFG | A3- A2 A | AGA d2 c | c3 B3 | 
B^cd e2 d | d3 A3 | ABA GFE | D3- D2 A :|
K: D Major
|: d2 c |
A2 B c2 A | B3 A2 G | E2F G2A | F2D d2c | 
A2B c2A | B3 A2G | E2F G2A | D3- :|
|: DdA |
c2 B- BFD | B2 A- AFD | A2G- GEC | B2 A- AdA | 
c2 B- BFD | B2 A- AFD | A2G- GEF | D3- :|
